src/main/resources/icons/PhpIcons/icons/constructor@2x.svg

<svg xmlns="http://www.w3.org/2000/svg" width="16" height="16" viewBox="0 0 16 16">
  <g fill="none" fill-rule="evenodd">
    <path fill="#F98B9E" fill-opacity=".6" d="M14.7279065,9.93922898 L13.2249195,9.85558898 L11.9495635,6.5 L11.0406489,6.5 L9.77115318,9.85558898 L6.01939023,10.0717163 L6.01939023,10.8769531 L8.70388068,13.140316 L8.21285589,14.9968255 C8.14216225,14.9989368 8.07120528,15 8,15 C4.13400675,15 1,11.8659932 1,8 C1,4.13400675 4.13400675,1 8,1 C11.8659932,1 15,4.13400675 15,8 C15,8.6727991 14.905082,9.32342891 14.7279065,9.93922898 Z"/>
    <polygon fill="#9AA7B0" points="11.498 14.163 8.718 15.956 9.564 12.758 7 10.668 10.303 10.484 11.498 7.4 12.693 10.484 15.996 10.668 13.432 12.758 14.278 15.956"/>
    <path fill="#231F20" fill-opacity=".7" d="M10.722286,7.34151125 C10.5387073,7.15150319 10.2444096,7 9.781628,7 C8.7591191,7 8.5,7.686 8.5,8 L8.5,9.92881614 L7.5,9.98642301 L7.5,8 C7.499,7.537 7.15,7 6.2,7 C5.25,7 5.05,7.7657 5,8 C4.96666667,8.1562 4.96666667,9.1563 5,11.0003 L4,11.0003 L4,6.0003 L5,6.0003 L5,6.399231 C5.46527507,6.133277 5.93194173,6.0003 6.4,6.0003 C7.13333333,6.0003 7.69953333,6.20159567 8.0986,6.60418701 C8.49762904,6.20159567 9.0919717,6.0003 9.881628,6.0003 C10.5369511,6.0003 11.0076085,6.20575975 11.3357065,6.5 L11.0406489,6.5 L10.722286,7.34151125 Z"/>
  </g>
</svg>

<svg xmlns="http://www.w3.org/2000/svg" width="16" height="16" viewBox="0 0 16 16"><rect id="frame" width="16" height="16" fill="none"/><g fill="none" fill-rule="evenodd"><path fill="#F98B9E" fill-opacity=".6" d="M14.728 9.94l-1.503-.084L11.95 6.5h-.91L9.772 9.856l-3.752.216v.805l2.685 2.263-.491 1.857a7 7 0 1 1 6.515-5.058z"/><path fill="#9AA7B0" d="M11.498 14.163l-2.78 1.793.846-3.198L7 10.668l3.303-.184L11.498 7.4l1.195 3.084 3.303.184-2.564 2.09.846 3.198z"/><path fill="#231F20" fill-opacity=".7" d="M10.722 7.342c-.183-.19-.478-.342-.94-.342C8.759 7 8.5 7.686 8.5 8v1.929l-1 .057V8c-.001-.463-.35-1-1.3-1-.95 0-1.15.766-1.2 1-.033.156-.033 1.156 0 3H4V6h1v.4c.465-.267.932-.4 1.4-.4.733 0 1.3.202 1.699.604C8.498 6.202 9.092 6 9.882 6c.655 0 1.126.206 1.454.5h-.295l-.319.842z"/></g></svg>
